X: 10610
T: Dowd's Favourite
R: reel
M: 4/4
K: Gdorian
|gd {d}dd gbag|fc {c}cc fgaf|gd {d}dd gbag|fdcA BGBd|
gd {d}dd gbag|fc {c}cc fgaf|gafg efde|cAfc AGG||

